svg/Octicons/unmute.svg

<svg xmlns="http://www.w3.org/2000/svg" viewBox="0 0 896 1024"><path d="m128 384h-128v256h128l256 192h64v-640h-64l-256 192m410.51 37.49c-12.496-12.497-32.758-12.497-45.25 0-12.496 12.496-12.496 32.758 0 45.25 24.994 24.993 24.994 65.52 0 90.51-12.496 12.496-12.496 32.758 0 45.25 12.497 12.496 32.759 12.496 45.25 0 49.987-49.989 49.987-131.03 0-181.02m90.51-90.51c-12.495-12.497-32.758-12.497-45.25 0-12.495 12.496-12.495 32.758 0 45.25 74.981 74.98 74.981 196.55 0 271.53-12.495 12.497-12.495 32.76 0 45.26 12.497 12.496 32.76 12.496 45.25 0 99.97-99.97 99.97-262.06 0-362.04m90.51-90.51c-12.497-12.497-32.76-12.497-45.25 0-12.496 12.496-12.496 32.758 0 45.25 124.97 124.97 124.97 327.58 0 452.55-12.496 12.497-12.496 32.759 0 45.25 12.495 12.497 32.758 12.497 45.25 0 149.96-149.96 149.96-393.1 0-543.06"/></svg>

<svg height="1024" width="896" xmlns="http://www.w3.org/2000/svg">
  <path d="M128 384H0v256h128l256 192h64V192h-64L128 384zM538.51 421.49c-12.496-12.497-32.758-12.497-45.255 0-12.496 12.496-12.496 32.758 0 45.255 24.994 24.993 24.994 65.516 0 90.51-12.496 12.496-12.496 32.758 0 45.255 12.497 12.496 32.759 12.496 45.255 0C588.497 552.521 588.497 471.477 538.51 421.49zM629.02 330.981c-12.495-12.497-32.758-12.497-45.255 0-12.495 12.496-12.495 32.758 0 45.255 74.981 74.98 74.981 196.548 0 271.528-12.495 12.497-12.495 32.76 0 45.256 12.497 12.496 32.76 12.496 45.255 0C728.994 593.046 728.994 430.955 629.02 330.981zM719.529 240.471c-12.497-12.497-32.76-12.497-45.255 0-12.496 12.496-12.496 32.758 0 45.255 124.968 124.968 124.968 327.58 0 452.548-12.496 12.497-12.496 32.759 0 45.255 12.495 12.497 32.758 12.497 45.255 0C869.49 633.567 869.49 390.432 719.529 240.471z" />
</svg>
